icons/phoenix.svg

<!--
  - The MIT License (MIT)
  -
  - Copyright (c) 2015-2024 Elior "Mallowigi" Boukhobza
  -
  - Permission is hereby granted, free of charge, to any person obtaining a copy
  - of this software and associated documentation files (the "Software"), to deal
  - in the Software without restriction, including without limitation the rights
  - to use, copy, modify, merge, publish, distribute, sublicense, and/or sell
  - copies of the Software, and to permit persons to whom the Software is
  - furnished to do so, subject to the following conditions:
  -
  - The above copyright notice and this permission notice shall be included in all
  - copies or substantial portions of the Software.
  -
  - THE SOFTWARE IS PROVIDED "AS IS", WITHOUT WARRANTY OF ANY KIND, EXPRESS OR
  - IMPLIED, INCLUDING BUT NOT LIMITED TO THE WARRANTIES OF MERCHANTABILITY,
  - FITNESS FOR A PARTICULAR PURPOSE AND NONINFRINGEMENT. IN NO EVENT SHALL THE
  - AUTHORS OR COPYRIGHT HOLDERS BE LIABLE FOR ANY CLAIM, DAMAGES OR OTHER
  - LIABILITY, WHETHER IN AN ACTION OF CONTRACT, TORT OR OTHERWISE, ARISING FROM,
  - OUT OF OR IN CONNECTION WITH THE SOFTWARE OR THE USE OR OTHER DEALINGS IN THE
  - SOFTWARE.
  -
  -->

<svg  version="1.1" xmlns="http://www.w3.org/2000/svg" width="16px" height="16px" viewBox="0 0 512 512">
  <path fill="#ff7061" data-iconColor="Phoenix"
        d="M59.7179985,102.6825256c10.0420036-2.5019989,18.8979988-3.4720001,28.4140053-3.8460007C86.1866074,112.5078201,68.9072037,114.1197052,59.7179985,102.6825256z M240.7180023,337.5285339c-23.4709625-15.3475342-34.3400574,3.6185303-64.2403717,3.9273376c-17.9401855,0.1852722-42.2718201-5.8864746-72.0900421-24.8457336c24.1130676,34.5806274,52.4764099,54.4639893,82.5627441,63.1152344C244.750061,396.3455505,256,367.0955505,311.7080078,386.1965637c-8.3437195-13.4056702-25.1528625-19.6958923-42.0367432-23.0787964c-17.0526733-3.416687-28.8685303,0.7003479-42.7674866-5.4588013C215.0340118,352.2535706,215.8021851,340.182373,240.7180023,337.5285339z M239.562912,161.1565399c12.5770569,17.4425049,26.9289703,30.5180817,51.1710968,41.1579895c31.7460022,12.8819885,63.9660034,15.0859985,96.9199829,3.7180023c25.5840149-8.8240051,43.9819946-0.2020111,53.5360107,24.6379852c1.5599976-30.0749817-15.2258301-43.1968994-29.307251-50.0280914c-30.1671448-14.6346893-63.0664368,11.2057495-99.7472534,8.0544739C287.7677307,186.6034546,265.8644714,181.5386047,239.562912,161.1565399z M342.8333435,320.5955505c-5.7805481,5.0349426-14.8333435,10-20.1673584,10.4609985c0.3160095,0.5679932,0.3980103,0.8519897,0.4860229,0.8519897c28.3769531,0.0099792,60.6366577-4.1834106,85.4026184-30.8699036c16.2339478-17.4928589,18.3796082-27.6931763,49.4753723-22.2700806c-21.1242676-16.9107056-56.6966553-13.8396912-82.0300598,8.9937134C365.6946411,297.0505981,357.5,308.262207,342.8333435,320.5955505z M265.5148315,271.7935181C296.5,287.3455505,335.375,287.0955505,368.0119934,265.9585571c30.6472778-20.7671814,60.0910034-5.2304688,62.4400024-8.9400024c-23.2046509-16.3049164-46.130127-16.5088501-67.8571167-10.8729706C320.25,256.0955505,318.5231934,286.2600098,265.5148315,271.7935181z M338.1700134,166.0665283c-5.2950134,0.091507-17.2950134,4.154007-32.6126099-0.9955597c-24.8749695-9.4651642-36.1065369-38.1988831-91.0634003-37.3904419C228.8333282,148.4288788,291.3333435,191.762207,338.1700134,166.0665283z M512,320.9405518c-27.9995728-7.5142212-36.125-49.2200012-81.5020142-21.7960205C466.375,297.7205505,466.375,344.0955505,512,320.9405518z M329.7799988,222.0605164c-54.4466553,1.5350189-95.7405243-46.8901825-126.8860016-88.2079926C163,80.9288788,81.3333359,56.928875,0,111.8625259c0,0,54.8938293-10.8439484,62,69.1371078c3.993988,44.9529877-0.0275803,59.1373901,16.000061,87.2625732C121.5,344.5955505,192.2700043,325.6885376,192.2700043,325.6885376l0,0C152.4783936,320.0159912,136.6666718,292.428894,132,270.5955505c-2.3333282-12.3333435,5.7959747-26.2867432,26.2696381-25.5340271c20.8218536,0.7655029,36.5913391,25.5680237,63.1423645,55.9730225c36.6165009,45.9031982,91.2862701,26.5049133,130.2280121-7.8739929c-1.981842-5.8518982-20.6409912,3.4776611-39.3946533,3.2584229c-29.6903992-0.3470459-57.285614-7.1443481-78.074585-21.8543701c-41.3374481-32.1357269-44.9069824-74.2901001-9.8647766-71.3880768c15.5273285,0.9190063,28.8893738,20.7985992,42.8606567,27.0856781C287.1666565,239.262207,307.3711548,236.5551758,329.7799988,222.0605164z M343.8160095,431.1465454c-18.149353-8.3843384-15.149353-43.7176819-74.2260132-40.2120056C305.0293884,399.5920715,309.3145447,434.4853821,343.8160095,431.1465454z"/>
</svg>

<svg xmlns="http://www.w3.org/2000/svg" viewBox="0 0 512 512"><path fill="#ff7061" d="M59.718 102.683c10.042-2.502 18.898-3.472 28.414-3.846-1.945 13.67-19.225 15.283-28.414 3.846m181 234.846c-23.471-15.348-34.34 3.618-64.24 3.927-17.94.185-42.272-5.887-72.09-24.846 24.113 34.58 52.476 54.464 82.562 63.115 57.8 16.62 69.05-12.63 124.758 6.472-8.344-13.406-25.153-19.696-42.037-23.08-17.052-3.416-28.868.701-42.767-5.458-11.87-5.405-11.102-17.477 13.814-20.13m-1.155-176.372c12.577 17.442 26.929 30.518 51.171 41.158 31.746 12.882 63.966 15.086 96.92 3.718 25.584-8.824 43.982-.202 53.536 24.638 1.56-30.075-15.226-43.197-29.307-50.029-30.167-14.634-63.067 11.206-99.748 8.055-24.367-2.094-46.27-7.158-72.572-27.54m103.27 159.439c-5.78 5.034-14.833 10-20.167 10.46.316.569.398.853.486.853 28.377.01 60.637-4.184 85.403-30.87 16.234-17.493 18.38-27.694 49.475-22.27-21.124-16.911-56.697-13.84-82.03 8.993-10.305 9.289-18.5 20.5-33.167 32.834m-77.318-48.802c30.985 15.552 69.86 15.302 102.497-5.835 30.647-20.768 60.091-5.23 62.44-8.94-23.205-16.305-46.13-16.51-67.857-10.873-42.345 9.95-44.072 40.114-97.08 25.648m72.655-105.727c-5.295.091-17.295 4.154-32.613-.996-24.875-9.465-36.106-38.199-91.063-37.39 14.34 20.748 76.84 64.081 123.676 38.386M512 320.94c-28-7.515-36.125-49.22-81.502-21.796 35.877-1.424 35.877 44.95 81.502 21.796m-182.22-98.88c-54.447 1.535-95.74-46.89-126.886-88.208C163 80.929 81.334 56.929 0 111.863c0 0 54.894-10.844 62 69.137 3.994 44.953-.028 59.137 16 87.262 43.5 76.334 114.27 57.427 114.27 57.427-39.792-5.673-55.603-33.26-60.27-55.093-2.333-12.334 5.796-26.287 26.27-25.534 20.821.765 36.591 25.568 63.142 55.973 36.617 45.903 91.286 26.504 130.228-7.874-1.982-5.852-20.641 3.477-39.395 3.258-29.69-.347-57.285-7.144-78.074-21.854-41.338-32.136-44.907-74.29-9.865-71.388 15.527.919 28.89 20.798 42.86 27.085 20 9 40.205 6.293 62.614-8.201m14.036 209.086c-18.15-8.385-15.15-43.718-74.226-40.212 35.44 8.657 39.725 43.55 74.226 40.212" data-iconColor="Phoenix"/></svg>
